src/assets/icons/edit.svg

<svg width="16" height="16" viewBox="0 0 16 16" fill="none" xmlns="http://www.w3.org/2000/svg">
<g clip-path="url(#clip0_1955_51425)">
<path fill-rule="evenodd" clip-rule="evenodd" d="M8.44824 13.0658C8.44824 12.7345 8.71687 12.4658 9.04825 12.4658H13.3998C13.7312 12.4658 13.9998 12.7345 13.9998 13.0658C13.9998 13.3972 13.7312 13.6658 13.3998 13.6658H9.04825C8.71687 13.6658 8.44824 13.3972 8.44824 13.0658Z" fill="#1D2129"/>
<path fill-rule="evenodd" clip-rule="evenodd" d="M8.9318 3.45756L3.28389 10.5217C3.20969 10.6143 3.18347 10.7326 3.21002 10.8457C3.21 10.8457 3.21004 10.8458 3.21002 10.8457L3.59138 12.4599L5.29415 12.4385L5.29516 12.4385C5.42502 12.4371 5.54269 12.3784 5.6187 12.2838C5.61862 12.2839 5.61879 12.2837 5.6187 12.2838L6.50969 11.1692C7.04457 10.5 7.75794 9.60746 8.47195 8.7139C9.18597 7.82031 9.90057 6.92578 10.4379 6.25263C10.7066 5.91602 10.9309 5.63491 11.0886 5.43698C11.1675 5.33797 11.2295 5.26003 11.272 5.20644L11.3152 5.15187C11.5013 4.83143 11.4005 4.4182 11.0673 4.21675C11.0473 4.20466 11.028 4.19143 11.0096 4.1771L10.5013 3.78222C10.2471 3.58473 9.98418 3.38036 9.96635 3.36631L9.962 3.36288C9.64896 3.1115 9.18711 3.15725 8.9318 3.45756ZM11.7206 3.2099C12.6015 3.76615 12.8777 4.92422 12.3172 5.8135C12.3113 5.82272 12.3029 5.83516 12.2998 5.83964L12.2926 5.84962L12.2858 5.8587L12.2782 5.8685L12.2627 5.88832L12.212 5.95243C12.1687 6.00692 12.1061 6.08557 12.0271 6.18472C11.8691 6.38312 11.6445 6.6646 11.3758 7.00127C10.8382 7.67466 10.1235 8.56938 9.40943 9.46299C8.69537 10.3566 7.98195 11.2492 7.44705 11.9184L6.55602 13.0331C6.55597 13.0331 6.55576 13.0334 6.08711 12.6588L6.55602 13.0331L6.55527 13.034C6.25207 13.4123 5.79435 13.6329 5.30921 13.6384C5.30917 13.6384 5.30924 13.6384 5.30921 13.6384C5.3089 13.6384 5.3085 13.6384 5.30819 13.6384L3.12556 13.6658C2.84454 13.6694 2.59873 13.4774 2.53411 13.2038L2.0421 11.1214C1.93094 10.6491 2.04236 10.1522 2.34731 9.77152C2.34721 9.77163 2.3474 9.77141 2.34731 9.77152L7.99933 2.70219L8.00779 2.69184C8.68321 1.88462 9.88947 1.76822 10.7104 2.42478C10.7109 2.42521 10.7117 2.42579 10.7126 2.42653L11.7206 3.2099ZM11.3308 5.13199C11.3377 5.12279 11.3397 5.1206 11.3308 5.13199V5.13199Z" fill="#1D2129"/>
<path fill-rule="evenodd" clip-rule="evenodd" d="M6.93667 4.03537C7.1385 3.77255 7.51517 3.72311 7.77799 3.92495L11.0494 6.43724C11.3122 6.63907 11.3616 7.01575 11.1598 7.27856C10.9579 7.54138 10.5813 7.59081 10.3185 7.38898L7.04708 4.87669C6.78427 4.67485 6.73483 4.29818 6.93667 4.03537Z" fill="#1D2129"/>
</g>
<defs>
<clipPath id="clip0_1955_51425">
<rect width="16" height="16" fill="white"/>
</clipPath>
</defs>
</svg>

<svg width="16" height="16" fill="none" xmlns="http://www.w3.org/2000/svg"><g clip-path="url(#prefix__a)" fill-rule="evenodd" clip-rule="evenodd" fill="#1D2129"><path d="M8.448 13.066a.6.6 0 0 1 .6-.6H13.4a.6.6 0 0 1 0 1.2H9.048a.6.6 0 0 1-.6-.6M8.932 3.458l-5.648 7.064a.38.38 0 0 0-.074.324l.381 1.614 1.703-.022h.001a.42.42 0 0 0 .324-.154l.89-1.115 4.763-5.963.043-.054a.686.686 0 0 0-.248-.935 1 1 0 0 1-.057-.04l-.509-.395-.535-.416-.004-.003a.747.747 0 0 0-1.03.095m2.789-.248a1.885 1.885 0 0 1 .579 2.63l-.007.01-.007.009-.008.01-.015.02-.051.063-.836 1.05-3.929 4.916-.891 1.115-.469-.374.469.374v.001c-.304.378-.762.599-1.247.604l-2.183.028a.6.6 0 0 1-.592-.462l-.492-2.083c-.111-.472 0-.969.305-1.35L8 2.703l.009-.01a1.947 1.947 0 0 1 2.702-.267q0 0 .003.002zm-.39 1.922q.012-.016 0 0"/><path d="M6.937 4.035a.6.6 0 0 1 .841-.11l3.271 2.512a.6.6 0 0 1-.73.952L7.047 4.877a.6.6 0 0 1-.11-.842"/></g><defs><clipPath id="prefix__a"><path fill="#fff" d="M0 0h16v16H0z"/></clipPath></defs></svg>
